X:23
I:linebreak $
T:Volte (CCX)
C:Michael Praetorius, Terpsichore, 1612
M:6/4
L:1/8
K:G major
P:A
"G"GABcde d3cB2 | "G"d2"C"c2"D"A2 "G"B6 | "G"GABcde d3cB2 | "D"A3GA2 "G"G6 ::
P:B
"G"B2"D"A2"G"G2 "G"B3cB2 | "G"B2"D"A2"G"G2 "G"d6 | 
"G"B2"D"A2"G"G2 "G"d3cB2 | "D"A3GA2 "G"G6 ::
P:C
"G"GAB2"C"c2 "D"d4"C"e2 | "Am"c2"D"A2d2 "G"B2G4 ::
P:D
"D"AGABcA "G"B2ABcB | "D"AGFGAB "G"G6 :| 
"G"G12 |] 
